src/images/save-icon-active.svg

<svg width="30" height="30" viewBox="0 0 30 30" fill="none" xmlns="http://www.w3.org/2000/svg">
<rect width="30" height="30" rx="15" fill="black"/>
<path d="M10 9.9C10 9.1268 10.6268 8.5 11.4 8.5H18.6C19.3732 8.5 20 9.1268 20 9.9V20.4789C20 20.9367 19.5079 21.2258 19.108 21.003L15.9734 19.2566C15.3683 18.9195 14.6317 18.9195 14.0266 19.2566L10.892 21.003C10.4921 21.2258 10 20.9367 10 20.4789V9.9Z" fill="white"/>
</svg>

<svg xmlns="http://www.w3.org/2000/svg" width="30" height="30" fill="none" xmlns:v="https://vecta.io/nano"><rect width="30" height="30" rx="15" fill="#000"/><path d="M10 9.9a1.4 1.4 0 0 1 1.4-1.4h7.2A1.4 1.4 0 0 1 20 9.9v10.579a.6.6 0 0 1-.892.524l-3.135-1.746a2 2 0 0 0-1.947 0l-3.135 1.746a.6.6 0 0 1-.892-.524V9.9z" fill="#fff"/></svg>
